X:1
T:The Savior Is Bending
T:The Savior Is Bending
T:Charles Reeves
T:William Luff (1850-?)
T:Public Domain Courtesy of the Cyber Hymnal™
T:Public Domain Courtesy of the Cyber Hymnal™
C:Charles Reeves
Z:Public Domain
Z:Courtesy of the Cyber Hymnal™
%%score ( 1 2 ) ( 3 4 )
L:1/8
Q:1/4=127
M:3/4
K:D
V:1 treble 
V:2 treble 
V:3 bass 
V:4 bass 
V:1
 [DF]2 | [DF]2 [EG]2 [FA]2 | [Fd]2 [Fc]2 [Fd]2 | [Gc]2 [GB]3 [GB] | [FA]2 [FB]2 [FA]2 | %5
w: 1.~The|Sav- ior is|bend- ing a-|bove thee, To|hear what thy|
w: 2.~Look|up in the|face of the|Sav- ior, The|thorn crowned yet|
w: 3.~Thou|hear- est His|of- fers of|mer- cy, The|prom- ise of|
 [DF]2 E2 D2 | [CE]4 ([CF][CG]) | [FA]2 [FB]2 [FA]2 | [Fd]4 [Ac][Ac] | [GB]2 ^A2 [GB]2 | %10
w: spir- it will|say, To~the *|ten- der em-|brace of His|mer- cy and|
w: beau- ti- ful|brow; He *|waits the re-|ply of thy|tear- dim- ming|
w: par- don and|peace; Come, *|wilt thou not|say to His|voice a glad|
 [Ge]4 ([Gd]>[GB]) | [DA]2 [DB]2 [FA]2 | [CF]2 [CG]2 [CE]2 | D4 |[K:A] [CE]2 | [CE]2 ^D2 [CE]2 | %16
w: grace Will~the *|an- swer be|“Yea, Lord,” or|“Nay”?|“I|died for thee,”|
w: eye, Oh, *|what wilt thou|an- swer Him|now?|The|Sav- ior is|
w: “Yea,” And *|bid all thy|wa- ver- ings|cease?|The|Sav- ior is|
 [Ec]2 [EB]2 [EA]2 | [EA]2 [DEG]3 [DE] | [DE]2 [DF]2 [DE]2 | [DG]2 [CA]2 [EB]2 | [Ec]4 ([Ec][Ec]) | %21
w: sweet- ly He|whis- pers, “See,|here are the|wounds in My|hands”; Thy *|
w: bend- ing a-|bove thee, He|asks for thy|heart in re-|turn, For~the *|
w: bend- ing a-|bove thee, His|quick ear a-|waits the glad|word, “Lord *|
 [Ec]2 [EB]2 [Ec]2 | [CA]4 [CA]2 | [CA]2 [EB]2 [Ec]2 | [Fd]4 [Fd]2 | [Ec]2 [Fd]2 [Ec]2 | %26
w: fin- ger bring|near, and|touch with- out|fear The|nail prints as|
w: heart that He|gave, to|ran- som and|save, Oh,|will not thy|
w: Je- sus, to-|day, I|whis- per my|‘Yea,’ And|know that my|
 [DB]2 [DF]2 [DG]2 | [CA]4 ||[K:D]"^Refrain" [GA]2 | [FA]2 [FB]2 [FA]2 | [Fd]2 [Fc]2 [Fd]2 | %31
w: o’er thee He|stands.||||
w: glad spir- it|burn?|The|Sav- ior is|bend- ing a-|
w: an- swer is|heard.”||||
 [Gc]2 [GB]3 [GB] | [FA]2 [GB]2 [FA]2 | [DF]2 E2 D2 | [CE]4 [CF][CG] | [FA]2 [FB]2 [FA]2 | %36
w: |||||
w: bove thee, To|hear what thy|spir- it will|say, To the|ten- der em-|
w: |||||
 [Fd]4 [Ac][Ac] | [GB]2 ^A2 [GB]2 | [Ge]4 [Gd]>[GB] | [DA]2 [DB]2 [FA]2 | [CF]2 [CG]2 [CE]2 | D4 |] %42
w: ||||||
w: brace of His|mer- cy and|grace, Will the|an- swer be|“Yea, Lord,” or|“Nay”?|
w: ||||||
V:2
 x2 | x6 | x6 | x6 | x6 | x2 E2 D2 | x6 | x6 | x6 | x2 ^A2 x2 | x6 | x6 | x6 | D4 |[K:A] x2 | %15
 x2 ^D2 x2 | x6 | x6 | x6 | x6 | x6 | x6 | x6 | x6 | x6 | x6 | x6 | x4 ||[K:D] x2 | x6 | x6 | x6 | %32
 x6 | x2 E2 D2 | x6 | x6 | x6 | x2 ^A2 x2 | x6 | x6 | x6 | D4 |] %42
V:3
 [D,A,]2 | [D,A,]2 [D,A,]2 [D,A,]2 | [F,A,]2 [F,A,]2 [D,D]2 | [G,D]2 [G,D]3 [G,D] | %4
 [D,D]2 [D,D]2 [D,D]2 | [D,A,]2 [C,A,]2 [B,,^G,]2 | [A,,A,]4 ([A,,A,][A,,A,]) | %7
 [D,A,]2 [D,A,]2 [D,A,]2 | [D,A,]4 [F,A,][F,A,] | [A,D]2 [G,D]2 [G,D]2 | [G,B,]4 ([G,B,]3/2 G,/) | %11
 [F,A,]2 [F,A,]2 [D,A,]2 | [A,,A,]2 [A,,A,]2 [A,,A,]2 | [D,F,]4 |[K:A] [A,,A,]2 | %15
 [A,,A,]2 [A,,A,]2 [A,,A,]2 | [A,,A,]2 [B,,G,]2 [B,,A,]2 | [E,A,]2 [E,A,]3 [E,G,] | %18
 [E,G,]2 [E,A,]2 [E,G,]2 | [E,B,]2 [F,A,]2 G,2 | A,4 A,A, | A,2 A,2 A,2 | A,4 A,2 | %23
 A,2 G,2 [=G,A,]2 | [F,A,]4 [B,,B,]2 | [E,A,]2 [E,A,]2 [E,A,]2 | [E,G,]2 [D,A,]2 [E,B,]2 | %27
 [A,,A,]4 ||[K:D] [C,A,]2 | [D,A,]2 [D,A,]2 [D,A,]2 | [F,A,]2 [F,A,]2 [D,D]2 | %31
 [G,D]2 [G,D]3 [G,D] | [D,D]2 [D,D]2 [D,D]2 | [D,A,]2 [C,A,]2 [B,,^G,]2 | [A,,A,]4 [A,,A,][A,,A,] | %35
 [D,A,]2 [D,A,]2 [D,A,]2 | [D,A,]4 [F,A,][F,A,] | [G,D]2 [G,C]2 [G,D]2 | [G,B,]4 [G,B,]>G, | %39
 [F,A,]2 [F,A,]2 [D,A,]2 | [A,,A,]2 [A,,A,]2 [A,,G,]2 | [D,F,]4 |] %42
V:4
 x2 | x6 | x6 | x6 | x6 | x6 | x6 | x6 | x6 | x6 | x11/2 G,/ | x6 | x6 | x4 |[K:A] x2 | x6 | x6 | %17
 x6 | x6 | x4 G,2 | A,4 (A,A,) | A,2 A,2 A,2 | A,4 A,2 | A,2 =G,2 x2 | x6 | x6 | x6 | x4 || %28
[K:D] x2 | x6 | x6 | x6 | x6 | x6 | x6 | x6 | x6 | x6 | x11/2 G,/ | x6 | x6 | x4 |] %42

